dist/img/logo.svg

<svg width="72" height="72" viewBox="0 0 72 72" fill="none" xmlns="http://www.w3.org/2000/svg">
<path d="M71.9836 18.28C71.9224 17.9295 71.6913 17.6323 71.3667 17.4863L44.9305 5.58769C44.5457 5.41423 44.0945 5.48263 43.7785 5.76278L35.9999 12.6479L28.2213 5.76278C27.9055 5.4828 27.4542 5.41423 27.0695 5.58769L0.633033 17.4863C0.308706 17.6323 0.0774878 17.9295 0.0161242 18.28C-0.0452395 18.6302 0.0707787 18.9882 0.326051 19.2359L8.67691 27.3363L3.96843 35.65C3.677 36.1648 3.85667 36.8183 4.37049 37.1114L8.94642 39.723V50.4038C8.94642 50.787 9.15063 51.1413 9.48216 51.3329L35.4624 66.3629C35.6288 66.4589 35.8142 66.5072 36.0001 66.5072C36.1773 66.5072 36.3544 66.4622 36.5149 66.3743C36.5146 66.375 36.5136 66.376 36.5134 66.3766L62.5177 51.333C62.8492 51.1414 63.0534 50.7872 63.0534 50.4039V39.7232L67.6297 37.1116C68.1435 36.8185 68.323 36.1649 68.0314 35.6501L63.3233 27.3364L71.6738 19.2361C71.9291 18.9882 72.0453 18.6302 71.9836 18.28ZM45.591 34.9473L37.0734 30.0135V15.8231L59.6763 27.1867L45.591 34.9473ZM12.3235 27.1869L34.9268 15.8231V30.0135L26.4089 34.9473L12.3235 27.1869ZM2.95569 18.7954L27.3177 7.83049L34.1011 13.8345L10.2195 25.8411L2.95569 18.7954ZM6.36407 35.7773L10.4311 28.5958L34.3891 41.7955L29.0737 48.7381L6.36407 35.7773ZM34.9265 63.5722L11.0933 49.7846V40.9485L28.8238 51.0676C28.9909 51.163 29.1738 51.2088 29.3553 51.2088C29.6798 51.2088 29.9987 51.0616 30.2085 50.7878L34.9266 44.6254L34.9265 63.5722ZM35.9999 40.2318L28.6042 36.1571L35.9999 31.8731L43.3956 36.1571L35.9999 40.2318ZM60.9064 49.7846L37.0734 63.5722V44.6253L41.7915 50.7876C42.001 51.0614 42.3199 51.2087 42.6447 51.2087C42.8257 51.2087 43.0091 51.1629 43.1762 51.0675L60.9064 40.9484V49.7846ZM65.6359 35.7773L42.9263 48.7379L37.6108 41.7953L61.5689 28.5956L65.6359 35.7773ZM61.7805 25.8411L37.8988 13.8345L44.6818 7.83049L69.0442 18.7954L61.7805 25.8411Z" fill="#FF9601"/>
</svg>

<svg width="72" height="72" fill="none" xmlns="http://www.w3.org/2000/svg"><path d="M71.984 18.28a1.073 1.073 0 00-.617-.794L44.93 5.588a1.072 1.072 0 00-1.151.175l-7.78 6.885-7.778-6.885a1.072 1.072 0 00-1.151-.175L.633 17.486a1.074 1.074 0 00-.307 1.75l8.35 8.1-4.708 8.314a1.073 1.073 0 00.402 1.461l4.576 2.612v10.68c0 .384.205.738.536.93l25.98 15.03a1.075 1.075 0 001.053.011l-.002.003 26.005-15.044c.331-.192.535-.546.535-.93v-10.68l4.577-2.611c.514-.294.693-.947.401-1.462l-4.708-8.314 8.35-8.1a1.07 1.07 0 00.31-.956zM45.59 34.947l-8.518-4.934v-14.19l22.603 11.364-14.085 7.76zm-33.267-7.76l22.603-11.364v14.19l-8.518 4.934-14.085-7.76zm-9.368-8.392L27.318 7.83l6.783 6.005L10.22 25.84l-7.264-7.046zm3.408 16.982l4.067-7.181 23.958 13.2-5.315 6.942-22.71-12.96zm28.563 27.795L11.092 49.785v-8.836l17.73 10.119a1.074 1.074 0 001.385-.28l4.719-6.163v18.947zM36 40.232l-7.396-4.075L36 31.873l7.396 4.284L36 40.232zm24.906 9.553L37.073 63.572V44.625l4.718 6.163a1.073 1.073 0 001.385.28l17.73-10.12v8.837zm4.73-14.008l-22.71 12.96-5.315-6.942 23.958-13.2 4.067 7.182zm-3.855-9.936L37.898 13.834l6.783-6.004 24.362 10.965-7.263 7.046z" fill="#FF9601"/></svg>
